packages/design-system/src/icons/assets/ic_settings_24.svg

<svg width="24" height="24" viewBox="0 0 24 24" fill="none" xmlns="http://www.w3.org/2000/svg">
<path d="M14.0789 1.5C14.2377 1.50001 14.3924 1.55041 14.5207 1.64394C14.649 1.73748 14.7443 1.86933 14.7929 2.0205L15.6179 4.584C15.9644 4.7535 16.2959 4.944 16.6124 5.1585L19.2464 4.5915C19.4017 4.55834 19.5635 4.57534 19.7086 4.64003C19.8536 4.70473 19.9743 4.81379 20.0534 4.9515L22.1324 8.55C22.2118 8.68763 22.2454 8.84693 22.2284 9.0049C22.2115 9.16288 22.1447 9.31139 22.0379 9.429L20.2304 11.424C20.2567 11.8065 20.2567 12.1905 20.2304 12.573L22.0379 14.571C22.1447 14.6886 22.2115 14.8371 22.2284 14.9951C22.2454 15.1531 22.2118 15.3124 22.1324 15.45L20.0534 19.05C19.9741 19.1874 19.8533 19.2962 19.7083 19.3606C19.5633 19.425 19.4016 19.4418 19.2464 19.4085L16.6124 18.8415C16.2974 19.0545 15.9644 19.2465 15.6194 19.416L14.7929 21.9795C14.7443 22.1307 14.649 22.2625 14.5207 22.3561C14.3924 22.4496 14.2377 22.5 14.0789 22.5H9.92092C9.76213 22.5 9.60744 22.4496 9.47913 22.3561C9.35082 22.2625 9.25551 22.1307 9.20692 21.9795L8.38342 19.4175C8.03786 19.2485 7.70455 19.0555 7.38592 18.84L4.75342 19.4085C4.59812 19.4417 4.4363 19.4247 4.29127 19.36C4.14624 19.2953 4.0255 19.1862 3.94642 19.0485L1.86742 15.45C1.78803 15.3124 1.7544 15.1531 1.77139 14.9951C1.78837 14.8371 1.85509 14.6886 1.96192 14.571L3.76942 12.573C3.74323 12.1914 3.74323 11.8086 3.76942 11.427L1.96192 9.429C1.85509 9.31139 1.78837 9.16288 1.77139 9.0049C1.7544 8.84693 1.78803 8.68763 1.86742 8.55L3.94642 4.95C4.02571 4.81256 4.14656 4.70381 4.29156 4.63939C4.43657 4.57497 4.59828 4.55821 4.75342 4.5915L7.38592 5.16C7.70392 4.9455 8.03692 4.752 8.38342 4.5825L9.20842 2.0205C9.25685 1.86982 9.35171 1.73832 9.47942 1.64482C9.60713 1.55133 9.76114 1.50064 9.91942 1.5H14.0774H14.0789ZM13.5299 3H10.4699L9.61792 5.6505L9.04342 5.931C8.76099 6.0692 8.48835 6.22657 8.22742 6.402L7.69642 6.762L4.97242 6.174L3.44242 8.826L5.30992 10.893L5.26492 11.529C5.24336 11.8426 5.24336 12.1574 5.26492 12.471L5.30992 13.107L3.43942 15.174L4.97092 17.826L7.69492 17.2395L8.22592 17.598C8.48685 17.7734 8.75949 17.9308 9.04192 18.069L9.61642 18.3495L10.4699 21H13.5329L14.3879 18.348L14.9609 18.069C15.243 17.9311 15.5152 17.7738 15.7754 17.598L16.3049 17.2395L19.0304 17.826L20.5604 15.174L18.6914 13.107L18.7364 12.471C18.758 12.1569 18.758 11.8416 18.7364 11.5275L18.6914 10.8915L20.5619 8.826L19.0304 6.174L16.3049 6.759L15.7754 6.402C15.5152 6.22625 15.243 6.06886 14.9609 5.931L14.3879 5.652L13.5314 3H13.5299ZM11.9999 7.5C13.1934 7.5 14.338 7.97411 15.1819 8.81802C16.0258 9.66193 16.4999 10.8065 16.4999 12C16.4999 13.1935 16.0258 14.3381 15.1819 15.182C14.338 16.0259 13.1934 16.5 11.9999 16.5C10.8064 16.5 9.66185 16.0259 8.81794 15.182C7.97402 14.3381 7.49992 13.1935 7.49992 12C7.49992 10.8065 7.97402 9.66193 8.81794 8.81802C9.66185 7.97411 10.8064 7.5 11.9999 7.5ZM11.9999 9C11.2043 9 10.4412 9.31607 9.8786 9.87868C9.31599 10.4413 8.99992 11.2044 8.99992 12C8.99992 12.7956 9.31599 13.5587 9.8786 14.1213C10.4412 14.6839 11.2043 15 11.9999 15C12.7956 15 13.5586 14.6839 14.1212 14.1213C14.6838 13.5587 14.9999 12.7956 14.9999 12C14.9999 11.2044 14.6838 10.4413 14.1212 9.87868C13.5586 9.31607 12.7956 9 11.9999 9Z" fill="#121212"/>
</svg>

<svg xmlns="http://www.w3.org/2000/svg" width="24" height="24" fill="none"><path fill="#121212" d="M14.079 1.5a.75.75 0 0 1 .714.52l.825 2.564q.52.254.994.575l2.634-.567a.75.75 0 0 1 .807.36l2.08 3.598a.75.75 0 0 1-.095.879l-1.808 1.995q.04.575 0 1.149l1.808 1.998a.75.75 0 0 1 .094.879l-2.079 3.6a.75.75 0 0 1-.807.358l-2.634-.567a8 8 0 0 1-.993.575l-.826 2.564a.75.75 0 0 1-.714.52H9.92a.75.75 0 0 1-.714-.52l-.824-2.562a8 8 0 0 1-.997-.578l-2.633.569a.75.75 0 0 1-.807-.36L1.867 15.45a.75.75 0 0 1 .095-.879l1.807-1.998a8 8 0 0 1 0-1.146L1.962 9.429a.75.75 0 0 1-.095-.879l2.08-3.6a.75.75 0 0 1 .806-.359l2.633.569a8 8 0 0 1 .997-.578l.825-2.561A.75.75 0 0 1 9.92 1.5h4.16m-.55 1.5h-3.06l-.851 2.65-.575.281a7 7 0 0 0-.816.471l-.53.36-2.725-.588-1.53 2.652 1.868 2.067-.045.636a7 7 0 0 0 0 .942l.045.636-1.87 2.067 1.53 2.652 2.725-.587.53.359q.393.263.817.471l.574.28L10.47 21h3.063l.855-2.652.573-.279a7 7 0 0 0 .814-.471l.53-.358 2.725.586 1.53-2.652-1.869-2.067.045-.636q.033-.472 0-.944l-.045-.635 1.87-2.066-1.53-2.652-2.726.585-.53-.357a7 7 0 0 0-.814-.471l-.573-.279L13.53 3zM12 7.5a4.5 4.5 0 1 1 0 9 4.5 4.5 0 0 1 0-9M12 9A3 3 0 1 0 12 15a3 3 0 0 0 0-6"/></svg>
